svg/timeline_check.svg

<svg xmlns="http://www.w3.org/2000/svg" viewBox="0 0 24 24"><path d="M4 8H2V2h2zM2 22h2v-6H2zm1-12a2 2 0 1 0 0 4c1.11 0 2-.89 2-2a2 2 0 0 0-2-2m21-4v12c0 1.11-.89 2-2 2H10a2 2 0 0 1-2-2v-4l-2-2 2-2V6a2 2 0 0 1 2-2h12c1.11 0 2 .89 2 2m-4.25 4.33-1.16-1.41L15 12.5l-1.59-1.58-1.16 1.16 2.75 3z"/></svg>

<?xml version="1.0" encoding="UTF-8"?><!DOCTYPE svg PUBLIC "-//W3C//DTD SVG 1.1//EN" "http://www.w3.org/Graphics/SVG/1.1/DTD/svg11.dtd"><svg xmlns="http://www.w3.org/2000/svg" xmlns:xlink="http://www.w3.org/1999/xlink" version="1.1" id="mdi-timeline-check" width="24" height="24" viewBox="0 0 24 24"><path d="M4 8H2V2H4V8M2 22H4V16H2V22M3 10C1.9 10 1 10.9 1 12C1 13.11 1.9 14 3 14C4.11 14 5 13.11 5 12C5 10.9 4.11 10 3 10M24 6V18C24 19.11 23.11 20 22 20H10C8.9 20 8 19.11 8 18V14L6 12L8 10V6C8 4.89 8.9 4 10 4H22C23.11 4 24 4.89 24 6M19.75 10.33L18.59 8.92L15 12.5L13.41 10.92L12.25 12.08L15 15.08L19.75 10.33Z" /></svg>
